X: 15346
T: Gladstone, The
R: reel
M: 4/4
K: Gmajor
|:c|BGcA defg|g/g/g BG AFDc|BGcA defg|dBcA G3:|
f|geag fdgf|ecfe dBed|cAdc BGcB|AGFG Adef|
geag fdgf|ecfe dBed|cAdc Bdge|dBcA G3||
|:c|BGcA defg|g/g/g BG AFDc|BGcA defg|dBcA G3:|
f|g/g/g eg f/f/f df|e/e/e ce d/d/d Bd|c/c/c Ac B/B/B GB|
AGFG Adef|geag fadf|ecge dgBd|cAdc BdGg|dBcA G3||

